X: 1
T: "PADDY'S THE BOY"- JIG
B: Ryan's Mammoth Collection of Fiddle Tunes
R: jig
M: 6/8
L: 1/8
Z: Contributed 20021220190059 by John Chambers jmchambers:rcn.com
K: Gmix
(ud/c/) \
| kB3 GBd | cBc ABc | BAB GBd | cAG FGA \
| ,B3 GBd | cBc ABc | ded cAF | AGG G2 :|
|: ud \
| fag fed | cAG FGA | G2g g^fg | a^fd d2e \
| =f3-fed | cAG FGA | B2d cAF | AGG G2 :|
